X:481
T:
R:vals
N:Vals i folkviseton,
S:uppt. efter Elisabet Olofsdotters föresjungning, Flors i Burs.
O:Gotland, Burs
M:3/4
L:1/8
K:C
G2|G2 B2 d2|f2 e2 d2|c2 A2 A2|G4 G2|A2 F2 A2|c2 B2 A2|G4:|e2|f3 g f2|d4 f2|
e3 f g2|c4 e2|d3 e d2|c2 B2 A2|G2 B2 d2|g4 G2|G2 B2 d2|f2 e2 d2|c4:|

